dist/svgs/unicons/line/image-edit.svg

<svg id="Layer_1" data-name="Layer 1" xmlns="http://www.w3.org/2000/svg" viewBox="0 0 24 24"><path d="M21.73682,3.751,19.31689,1.33105a.99964.99964,0,0,0-1.41406,0L13.32275,5.91113a1.00013,1.00013,0,0,0-.293.707V9.03809a1.00005,1.00005,0,0,0,1,1H16.4502a1.00014,1.00014,0,0,0,.707-.293L21.73682,5.165A.99964.99964,0,0,0,21.73682,3.751ZM16.03613,8.03809H15.02979V7.03223l3.58007-3.58008L19.61572,4.458ZM19,11a1,1,0,0,0-1,1v2.3916l-1.48047-1.48047a2.78039,2.78039,0,0,0-3.92822,0l-.698.698L9.40723,11.123a2.777,2.777,0,0,0-3.92432,0L4,12.606V7A1.0013,1.0013,0,0,1,5,6h6a1,1,0,0,0,0-2H5A3.00328,3.00328,0,0,0,2,7V19a3.00328,3.00328,0,0,0,3,3H17a3.00328,3.00328,0,0,0,3-3V12A1,1,0,0,0,19,11ZM5,20a1.0013,1.0013,0,0,1-1-1V15.43408l2.897-2.897a.79926.79926,0,0,1,1.09619,0l3.168,3.16711c.00849.00916.0116.02179.02045.03064L15.44714,20Zm13-1a.97137.97137,0,0,1-.17877.53705l-4.51386-4.51386.698-.698a.77979.77979,0,0,1,1.1001,0L18,17.21973Z"/></svg>

<svg xmlns="http://www.w3.org/2000/svg" data-name="Layer 1" viewBox="0 0 24 24"><path d="M21.737 3.751l-2.42-2.42a1 1 0 00-1.414 0l-4.58 4.58a1 1 0 00-.293.707v2.42a1 1 0 001 1h2.42a1 1 0 00.707-.293l4.58-4.58a1 1 0 000-1.414zm-5.7 4.287H15.03V7.032l3.58-3.58 1.006 1.006zM19 11a1 1 0 00-1 1v2.392l-1.48-1.48a2.78 2.78 0 00-3.929 0l-.698.697-2.486-2.486a2.777 2.777 0 00-3.924 0L4 12.606V7a1.001 1.001 0 011-1h6a1 1 0 000-2H5a3.003 3.003 0 00-3 3v12a3.003 3.003 0 003 3h12a3.003 3.003 0 003-3v-7a1 1 0 00-1-1zM5 20a1.001 1.001 0 01-1-1v-3.566l2.897-2.897a.8.8 0 011.096 0l3.168 3.167c.009.01.012.022.02.03L15.448 20zm13-1a.971.971 0 01-.179.537l-4.514-4.514.698-.698a.78.78 0 011.1 0L18 17.22z"/></svg>
